X:7325
T:The Shaskeen Reel
O:england
M:4/4
L:1/8
K:G
|DG2-ABcA|defd-cAA2|B3G-A3F|G2AG-FDDE|DG2-ABcA|defd-cABd|f3d-edcA|AGFA-G
3E||
|dggf-g2fg|a3g-fddc|B3G-A3F|G2AG-FDDE|dggf-g2fg|a3g-fdde|f3d-edcA|AGFA-G
3A|
|dggf-g2fg|a3g-fddc|B3G-A3F|G2AG-FDDE|B3g-AGFA|defd-cABd|f3d-edcA|AGFA-G
3A|


